X:85
T:B085-  Could man his wish obtain
Q:1/4=120
L:1/4
M:C|
K:Gm
G|d3/2c/2dA|B3^F|G3/2A/2A3/2G/2|G3d|\
g3/2f/2gd|e3c|f3/2e/2fc|d3A|\
B3/2c/2c3/2B/2|B3d|b3/2a/2 (g/2f/2) (=e/2d/2)|^c3c|\
d3/2=e/2e3/2d/2|d3||a|^f3/2=e/2dd|g3g|\
=e3/2d/2cc|f3f|d3/2c/2BB|e2d3/2d/2|\
d3/2e/2c3/2d/2|d3=e|f3/2f/2f3/2(=e/4f/4)|=e3e|\
a3/2b/2g3/2(^f/4g/4)|^f (g/2=f/2) (e/2d/2) (c/2B/2)|\
(e/2d/2) (c/2B/2)A3/2G/2|G3|]

